src/client/web-contents/img/common/badge/badge_member_06.svg

<svg height="32" viewBox="0 0 32 32" width="32" xmlns="http://www.w3.org/2000/svg"><g fill="none" fill-rule="evenodd"><rect fill="#8d92aa" height="32" rx="4" width="32"/><path d="m16.2399996 23.2c-1.0800054 0-2.1133284-.1833315-3.1-.55s-1.8999958-.9299962-2.74-1.69l1.48-1.76c.6800034.5866696 1.3666632 1.0366651 2.06 1.35s1.4799956.47 2.36.47c.7600038 0 1.3633311-.1599984 1.81-.48s.67-.746664.67-1.28v-.04c0-.2533346-.0433329-.4766657-.13-.67s-.2466655-.3766658-.48-.55-.5533313-.3333326-.96-.48-.9366634-.2933326-1.59-.44c-.7466704-.1733342-1.4099971-.3699989-1.99-.59s-1.0666647-.4866651-1.46-.8-.6933323-.6966644-.9-1.15-.31-.9999968-.31-1.64v-.04c0-.600003.1199988-1.1499975.36-1.65s.5699979-.9266649.99-1.28.9233304-.629999 1.51-.83 1.2266632-.3 1.92-.3c1.0266718 0 1.9499959.1499985 2.77.45s1.5899964.7366638 2.31 1.31l-1.32 1.86c-.6400032-.466669-1.2733302-.8233321-1.9-1.07s-1.2599968-.37-1.9-.37c-.7200036 0-1.279998.1599984-1.68.48s-.6.713331-.6 1.18v.04c0 .266668.0466662.5033323.14.71s.2633321.3933325.51.56.5866645.3233326 1.02.47.98333.2999992 1.65.46c.733337.1866676 1.3833305.3933322 1.95.62s1.0366648.5033317 1.41.83.6566657.7066645.85 1.14.29.9366638.29 1.51v.04c0 .6533366-.1233321 1.2399974-.37 1.76s-.5899978.9599982-1.03 1.32-.9666636.6333324-1.58.82-1.286663.28-2.02.28z" fill="#fff"/></g></svg>

<?xml version="1.0" encoding="UTF-8" standalone="no"?>
<svg width="32px" height="32px" viewBox="0 0 32 32" version="1.1" xmlns="http://www.w3.org/2000/svg" xmlns:xlink="http://www.w3.org/1999/xlink">
    <!-- Generator: Sketch 50.2 (55047) - http://www.bohemiancoding.com/sketch -->
    <title>graphic_badge_member_06</title>
    <desc>Created with Sketch.</desc>
    <defs></defs>
    <g id="Icon_Badge_Graphic" stroke="none" stroke-width="1" fill="none" fill-rule="evenodd">
        <g id="##Element/Badge/Member06">
            <rect id="Rectangle-2" fill="#8D92AA" x="0" y="0" width="32" height="32" rx="4"></rect>
            <path d="M16.2399996,23.2 C15.1599942,23.2 14.1266712,23.0166685 13.1399996,22.65 C12.153328,22.2833315 11.2400038,21.7200038 10.3999996,20.96 L11.8799996,19.2 C12.560003,19.7866696 13.2466628,20.2366651 13.9399996,20.55 C14.6333364,20.8633349 15.4199952,21.02 16.2999996,21.02 C17.0600034,21.02 17.6633307,20.8600016 18.1099996,20.54 C18.5566685,20.2199984 18.7799996,19.793336 18.7799996,19.26 L18.7799996,19.22 C18.7799996,18.9666654 18.7366667,18.7433343 18.6499996,18.55 C18.5633325,18.3566657 18.4033341,18.1733342 18.1699996,18 C17.9366651,17.8266658 17.6166683,17.6666674 17.2099996,17.52 C16.8033309,17.3733326 16.2733362,17.2266674 15.6199996,17.08 C14.8733292,16.9066658 14.2100025,16.7100011 13.6299996,16.49 C13.0499967,16.2699989 12.5633349,16.0033349 12.1699996,15.69 C11.7766643,15.3766651 11.4766673,14.9933356 11.2699996,14.54 C11.0633319,14.0866644 10.9599996,13.5400032 10.9599996,12.9 L10.9599996,12.86 C10.9599996,12.259997 11.0799984,11.7100025 11.3199996,11.21 C11.5600008,10.7099975 11.8899975,10.2833351 12.3099996,9.93 C12.7300017,9.5766649 13.23333,9.300001 13.8199996,9.1 C14.4066692,8.899999 15.0466628,8.8 15.7399996,8.8 C16.7666714,8.8 17.6899955,8.9499985 18.5099996,9.25 C19.3300037,9.5500015 20.099996,9.9866638 20.8199996,10.56 L19.4999996,12.42 C18.8599964,11.953331 18.2266694,11.5966679 17.5999996,11.35 C16.9733298,11.1033321 16.3400028,10.98 15.6999996,10.98 C14.979996,10.98 14.4200016,11.1399984 14.0199996,11.46 C13.6199976,11.7800016 13.4199996,12.173331 13.4199996,12.64 L13.4199996,12.68 C13.4199996,12.946668 13.4666658,13.1833323 13.5599996,13.39 C13.6533334,13.5966677 13.8233317,13.7833325 14.0699996,13.95 C14.3166675,14.1166675 14.6566641,14.2733326 15.0899996,14.42 C15.5233351,14.5666674 16.0733296,14.7199992 16.7399996,14.88 C17.4733366,15.0666676 18.1233301,15.2733322 18.6899996,15.5 C19.2566691,15.7266678 19.7266644,16.0033317 20.0999996,16.33 C20.4733348,16.6566683 20.7566653,17.0366645 20.9499996,17.47 C21.1433339,17.9033355 21.2399996,18.4066638 21.2399996,18.98 L21.2399996,19.02 C21.2399996,19.6733366 21.1166675,20.2599974 20.8699996,20.78 C20.6233317,21.3000026 20.2800018,21.7399982 19.8399996,22.1 C19.3999974,22.4600018 18.873336,22.7333324 18.2599996,22.92 C17.6466632,23.1066676 16.9733366,23.2 16.2399996,23.2 Z" id="S" fill="#FFFFFF"></path>
        </g>
    </g>
</svg>
